assets/svg/26A0.svg

<svg xmlns="http://www.w3.org/2000/svg" viewBox="0 0 64 64" enable-background="new 0 0 64 64"><path fill="#ffdd15" d="m63.37 53.41c-9.388-17.15-18.78-34.3-28.17-51.45-1.434-2.622-5.089-2.622-6.522 0-9.389 17.15-18.786 34.3-28.17 51.45-1.453 2.649.399 6.083 3.258 6.083 18.784 0 37.568 0 56.35 0 1.584 0 2.648-.853 3.203-2.01.698-1.102.885-2.565.055-4.075"/><path fill="#e3c220" d="m18.657 53.42c7.449-13.611 14.905-27.22 22.357-40.831-1.937-3.541-3.877-7.079-5.814-10.618-1.434-2.624-5.089-2.624-6.522 0-9.389 17.15-18.786 34.3-28.17 51.45-1.453 2.645.399 6.083 3.258 6.083 6.05 0 12.1 0 18.15 0-2.859 0-4.71-3.438-3.256-6.083"/><path fill="#1f2e35" d="m28.917 34.37l-.889-13.262c-.166-2.583-.246-4.439-.246-5.565 0-1.534.4-2.727 1.202-3.588.805-.856 1.863-1.286 3.175-1.286 1.583 0 2.646.551 3.178 1.646.537 1.102.809 2.684.809 4.751 0 1.215-.066 2.453-.198 3.708l-1.19 13.649c-.129 1.626-.404 2.872-.827 3.739-.426.871-1.128 1.301-2.109 1.301-.992 0-1.69-.419-2.072-1.257-.393-.841-.668-2.12-.833-3.836m3.072 18.217c-1.125 0-2.106-.362-2.947-1.093-.841-.728-1.26-1.748-1.26-3.058 0-1.143.4-2.12 1.202-2.921.805-.806 1.786-1.206 2.951-1.206s2.153.4 2.977 1.206c.815.801 1.234 1.778 1.234 2.921 0 1.29-.419 2.308-1.246 3.044-.836.74-1.801 1.107-2.911 1.107"/></svg>

<?xml version="1.0" encoding="UTF-8" standalone="no"?>
<!-- Generator: Adobe Illustrator 16.0.0, SVG Export Plug-In . SVG Version: 6.00 Build 0)  -->

<svg
   xmlns:dc="http://purl.org/dc/elements/1.1/"
   xmlns:cc="http://creativecommons.org/ns#"
   xmlns:rdf="http://www.w3.org/1999/02/22-rdf-syntax-ns#"
   xmlns:svg="http://www.w3.org/2000/svg"
   xmlns="http://www.w3.org/2000/svg"
   xmlns:sodipodi="http://sodipodi.sourceforge.net/DTD/sodipodi-0.dtd"
   xmlns:inkscape="http://www.inkscape.org/namespaces/inkscape"
   version="1.1"
   id="Layer_1"
   x="0px"
   y="0px"
   width="64px"
   height="64px"
   viewBox="0 0 64 64"
   enable-background="new 0 0 64 64"
   xml:space="preserve"
   inkscape:version="0.48.5 r10040"
   sodipodi:docname="26A0.svg"
   inkscape:export-filename="D:\TESTINGEMOJI\SVGTEST\26A0.png"
   inkscape:export-xdpi="90"
   inkscape:export-ydpi="90"><metadata
   id="metadata3361"><rdf:RDF><cc:Work
       rdf:about=""><dc:format>image/svg+xml</dc:format><dc:type
         rdf:resource="http://purl.org/dc/dcmitype/StillImage" /><dc:title></dc:title></cc:Work></rdf:RDF></metadata><defs
   id="defs3359" /><sodipodi:namedview
   pagecolor="#ffffff"
   bordercolor="#666666"
   borderopacity="1"
   objecttolerance="10"
   gridtolerance="10"
   guidetolerance="10"
   inkscape:pageopacity="0"
   inkscape:pageshadow="2"
   inkscape:window-width="640"
   inkscape:window-height="480"
   id="namedview3357"
   showgrid="false"
   inkscape:zoom="3.6875"
   inkscape:cx="32"
   inkscape:cy="32"
   inkscape:window-x="644"
   inkscape:window-y="296"
   inkscape:window-maximized="0"
   inkscape:current-layer="Layer_1" />
<g
   id="g3347">
	<g
   id="g3349">
		<path
   fill="#FFDD15"
   d="M63.373,53.413C53.985,36.264,44.593,19.114,35.2,1.966c-1.434-2.622-5.089-2.622-6.522,0    C19.289,19.114,9.892,36.264,0.507,53.413c-1.453,2.649,0.399,6.083,3.258,6.083c18.784,0,37.568,0,56.35,0    c1.584,0,2.648-0.853,3.203-2.008C64.016,56.386,64.203,54.923,63.373,53.413z"
   id="path3351" />
		<path
   fill="#E3C220"
   d="M18.657,53.417c7.449-13.611,14.905-27.224,22.357-40.831C39.077,9.045,37.137,5.507,35.2,1.968    c-1.434-2.624-5.089-2.624-6.522,0C19.289,19.116,9.892,36.266,0.507,53.417C-0.946,56.062,0.906,59.5,3.765,59.5    c6.05,0,12.101,0,18.148,0C19.054,59.5,17.203,56.062,18.657,53.417z"
   id="path3353" />
	</g>
	<path
   fill="#1F2E35"
   d="M28.917,34.371l-0.889-13.262c-0.166-2.583-0.246-4.439-0.246-5.565c0-1.534,0.4-2.727,1.202-3.588   c0.805-0.856,1.863-1.286,3.175-1.286c1.583,0,2.646,0.551,3.178,1.646c0.537,1.102,0.809,2.684,0.809,4.751   c0,1.215-0.066,2.453-0.198,3.708l-1.19,13.649c-0.129,1.626-0.404,2.872-0.827,3.739c-0.426,0.871-1.128,1.301-2.109,1.301   c-0.992,0-1.69-0.419-2.072-1.257C29.357,37.366,29.082,36.087,28.917,34.371z M31.989,52.588c-1.125,0-2.106-0.362-2.947-1.093   c-0.841-0.728-1.26-1.748-1.26-3.058c0-1.143,0.4-2.12,1.202-2.921c0.805-0.806,1.786-1.206,2.951-1.206s2.153,0.4,2.977,1.206   c0.815,0.801,1.234,1.778,1.234,2.921c0,1.29-0.419,2.308-1.246,3.044C34.064,52.221,33.099,52.588,31.989,52.588z"
   id="path3355" />
</g>
</svg>
